X: 65
T:Blackberry Blossom
M:4/4
L:1/8
F:http://blackrosetheband.googlepages.com/ABCTUNES.ABC May 2009
S:Planxty "After the Break"
K:G
ge|"G"dBAc BGGA|~B2 BA (3B^cd ge|dBAc BAGA|"Am"eaag a2 ge|
"G"dABc BGGA|~B2 BA (3B^cd ge|dBAc BGGA|"Am"eaag agef||
"G"~g2 gf gaba|"C"~g3 b "D7"agef|"G"~g2 gf gabg|"Am"eaag agef|
"G"~g2 gf gaba|"C"~g3 b "D7"a2 ga|"G"bgaf "D7"gfed|"Am"eaag a2 z||

